lib/radiotmp/nrk-hardware-headphones.svg

<svg xmlns="http://www.w3.org/2000/svg" viewBox="0 0 24 24"><path fill="#000" fill-rule="evenodd" d="M2 22V6.667L5.5 2h13L22 6.667V22h-7v-9h5V7.333L17.5 4h-11L4 7.333V13h5v9H2Zm5-7v5H4v-5h3Zm13 5v-5h-3v5h3Z" clip-rule="evenodd"/></svg>

<svg width="24" height="24" viewBox="0 0 24 24" fill="none" xmlns="http://www.w3.org/2000/svg">
<path fill-rule="evenodd" clip-rule="evenodd" d="M2 22V6.66667L5.5 2H18.5L22 6.66667V22H15V13H20V7.33333L17.5 4H6.5L4 7.33333V13H9V22H2ZM7 15V20H4V15H7ZM20 20V15H17V20H20Z" fill="black"/>
</svg>
